X:1
T:Lady Amelia Murray
T:Lady Amelia Murray
T:Niel Gow
C:Niel Gow
L:1/8
Q:1/8=128
M:4/4
K:D
V:1 treble 
V:1
|: d/B/ | AD B/A/G/F/ BE Ed | AD B/A/G/F/ AD fd | ec dF BE Ed/B/ | AD B/A/G/F/ A2 Ad/B/ | %5
 AD B/A/G/F/ BE Ed | AD B/A/G/F/ AD fd | ec dF BE Ed/B/ | AD B/A/G/F/ A2 Af | d>a f/g/a/f/ ge ef | %10
 d>a f/g/a/f/ da fd | g>e f>d eE E>F | D>d B/A/G/F/ A2 A>f | d>a f/g/a/f/ ge ef | da fa g>e f>d | %15
 ec dF BE E>F | D>d B/A/G/F/ A2 A :| %17

